X: 36428
T: Seanamhac Tube Station
R: jig
M: 6/8
K: Gdorian
|:GFD DCD|GAc ~d3|dcA cAF|GFD CDF|
GFD DCD|GAc ~d3|dcA cAF|1 ~G3 ABA:|2 ~G3 GAc||
|:~d3 dcA|~c3 cAc|dcA cAF|GFD CDF|
[1 ded dcA|cdc gfd|dcA cAF|~G3 G2c:|
[2 GFD GFD|GFD dcA|dcA dcA|~G3 GAc||
|:d2f gfd|~f3 agf|gfd c2d|cAG FGA|
[1 gaf gfd|~f3 gaf|gfd cAF|~G3 GAc:|
[2 GFD DCD|GAc ~d3|dcA cAF|~G3 G3||

